Delta/apps/scalable/slack.svg

<svg width="192" height="192" fill="none" version="1.1" viewBox="0 0 192 192" xmlns="http://www.w3.org/2000/svg">
 <path d="m57.142 32.857c0-8.7562 7.5781-15.857 16.927-15.857 9.3586 0.0088 16.938 7.1076 16.93 15.857v15.857h-16.93c-4.4939-0.0043-8.802-1.6772-11.976-4.6509s-4.9554-7.0045-4.9509-11.206zm-28.215 26.428h45.142c9.3493 0 16.93 7.1004 16.93 15.859 0 8.7562-7.5809 15.857-16.927 15.857h-45.145c-9.3493 0-16.927-7.1004-16.927-15.857 0-8.7588 7.5781-15.859 16.927-15.859z" style="clip-rule:evenodd;fill-rule:evenodd;fill:#9abeff"/>
 <path d="m134.86 32.856v42.288c7e-3 8.7487-7.572 15.847-16.931 15.856-9.349 0-16.927-7.1001-16.927-15.861v-42.283c0-8.7559 7.578-15.856 16.927-15.856 9.359 0.0088 16.938 7.1073 16.931 15.856zm28.212 26.427c9.349 0 16.93 7.1001 16.93 15.859 8e-3 8.7487-7.572 15.847-16.93 15.856h-16.928v-15.856c0-8.7585 7.579-15.859 16.928-15.859z" style="clip-rule:evenodd;fill-rule:evenodd;fill:#98dc9a"/>
 <path d="m163.07 133.72h-45.146v-3e-3c-4.494-4e-3 -8.802-1.677-11.976-4.651-3.175-2.973-4.956-7.004-4.951-11.205 0-8.757 7.578-15.857 16.927-15.857h45.143c9.358 9e-3 16.938 7.108 16.93 15.857 0 8.758-7.581 15.859-16.927 15.859zm-28.215 26.427c7e-3 8.749-7.572 15.848-16.931 15.857-9.349 0-16.927-7.1-16.927-15.857v-15.856h16.927c9.359 9e-3 16.938 7.107 16.931 15.856z" style="clip-rule:evenodd;fill-rule:evenodd;fill:#f9de81"/>
 <path d="m16.951 129.06c-3.1745-2.973-4.9554-7.004-4.9509-11.205 0-8.757 7.5781-15.857 16.927-15.857h16.93v15.857c0.0079 8.749-7.5716 15.847-16.93 15.856-4.494-4e-3 -8.802-1.677-11.976-4.651zm40.192 31.079v-42.284c0-8.757 7.578-15.857 16.927-15.857 4.4944 4e-3 8.8032 1.676 11.978 4.65s4.9564 7.005 4.9519 11.207v42.286c0.0078 8.749-7.5716 15.848-16.93 15.857-9.3493 0-16.927-7.1-16.927-15.859z" style="clip-rule:evenodd;fill-rule:evenodd;fill:#ff837d"/>
</svg>

<svg width="192" height="192" viewBox="0 0 192 192" fill="none" xmlns="http://www.w3.org/2000/svg">
<g clip-path="url(#clip0)">
<path fill-rule="evenodd" clip-rule="evenodd" d="M57.1424 32.8566C57.1424 24.1004 64.7205 17 74.0698 17C83.4284 17.0088 91.0078 24.1076 91 32.8566V48.7132H74.0698C69.5759 48.7089 65.2678 47.036 62.0933 44.0623C58.9188 41.0886 57.1379 37.0578 57.1424 32.8566ZM28.9274 59.2842H74.0698C83.4191 59.2842 91 66.3846 91 75.1434C91 83.8996 83.4191 91 74.0726 91H28.9274C19.5781 91 12 83.8996 12 75.1434C12 66.3846 19.5781 59.2842 28.9274 59.2842Z" fill="#9ABEFF"/>
<path fill-rule="evenodd" clip-rule="evenodd" d="M134.858 32.856V75.1413V75.144C134.865 83.8927 127.286 90.9912 117.927 91C108.578 91 101 83.8999 101 75.1387V32.856C101 24.1001 108.578 17 117.927 17C127.286 17.0088 134.865 24.1073 134.858 32.856ZM163.07 59.2827C172.419 59.2827 180 66.3828 180 75.1413C180.008 83.89 172.428 90.9886 163.07 90.9974H146.142V75.1413C146.142 66.3828 153.721 59.2827 163.07 59.2827Z" fill="#98DC9A"/>
<path fill-rule="evenodd" clip-rule="evenodd" d="M163.073 133.716H117.927V133.713C113.433 133.709 109.125 132.036 105.951 129.062C102.776 126.089 100.995 122.058 101 117.857C101 109.1 108.578 102 117.927 102H163.07C172.428 102.009 180.008 109.108 180 117.857C180 126.615 172.419 133.716 163.073 133.716ZM134.858 160.143C134.865 168.892 127.286 175.991 117.927 176C108.578 176 101 168.9 101 160.143V144.287H117.927C127.286 144.296 134.865 151.394 134.858 160.143Z" fill="#F9DE81"/>
<path fill-rule="evenodd" clip-rule="evenodd" d="M16.9509 129.062C13.7764 126.089 11.9955 122.058 12 117.857C12 109.1 19.5781 102 28.9274 102H45.8575V117.857C45.8654 126.606 38.2859 133.704 28.9274 133.713C24.4334 133.709 20.1254 132.036 16.9509 129.062ZM57.1425 160.141V117.857C57.1425 109.1 64.7205 102 74.0698 102C78.5642 102.004 82.873 103.676 86.0481 106.65C89.2232 109.624 91.0045 113.655 91 117.857V160.143C91.0078 168.892 83.4284 175.991 74.0698 176C64.7205 176 57.1425 168.9 57.1425 160.141Z" fill="#FF837D"/>
</g>
<defs>
<clipPath id="clip0">
<rect width="192" height="192" fill="white"/>
</clipPath>
</defs>
</svg>
